X: 21562
T: FISHERS' HORNPIPE
R: hornpipe, reel
B: K\"ohler's Violin Repository, v.2, 1885 p.156 #2
F: http://www.archive.org/details/klersviolinrepos02rugg
Z: 2012 John Chambers <jc:trillian.mit.edu>
M: C|
L: 1/8
K: F
u((3cde) |\
fcAc BdcB | AFAc BdcB | AFAF BGBG | AFAF G2 ((3cde) |\
fcAc BdcB | AFAc BdcB | Aceb agfe | [g2B2][f2A2][f2A2] :|
|: u(ef) |\
gece gege | afcf afaf | gece gaba | (3gag (3fed c2"^>"^c2 |\
dBFB dBfd | cAFA cAfc | dfed cBAG | F2{e}f2F2 :|

%%sep 2 1 500

